app/dist/common/images/fabrinet.svg

<svg height="18" width="18" xmlns="http://www.w3.org/2000/svg"><path d="m0 0h18v18h-18z" fill="#4b6c41"/><path d="m8 9v6h2v-6h2v-2h-2v-1.344c.03-.633.463-.656.794-.656h1.206v-1.994c-.241-.013-.621 0-2.298 0-1.252 0-1.702 1.019-1.702 2.399v1.595h-2v2z" fill="#fff"/></svg>

<!-- by TradingView --><svg width="18" height="18" xmlns="http://www.w3.org/2000/svg"><path fill="#4B6C41" d="M0 0h18v18H0z"/><path d="M8 9v6h2V9h2V7h-2V5.656c.03-.633.463-.656.794-.656H12V3.006c-.241-.013-.621 0-2.298 0C8.45 3.006 8 4.025 8 5.405V7H6v2h2z" fill="#fff"/></svg>
